keyboards/ergodox_ez/base/keymaps/dvorak_qwerty/icon/mute-speaker.svg

<?xml version="1.0" encoding="UTF-8" standalone="no"?>
<!-- Uploaded to: SVG Repo, www.svgrepo.com, Generator: SVG Repo Mixer Tools -->

<svg
   width="719.97601"
   height="719.97601"
   viewBox="0 0 25.19916 25.19916"
   fill="none"
   version="1.1"
   id="svg54768"
   sodipodi:docname="mute-speaker.svg"
   inkscape:version="1.2.2 (b0a8486541, 2022-12-01)"
   xmlns:inkscape="http://www.inkscape.org/namespaces/inkscape"
   xmlns:sodipodi="http://sodipodi.sourceforge.net/DTD/sodipodi-0.dtd"
   xmlns="http://www.w3.org/2000/svg"
   xmlns:svg="http://www.w3.org/2000/svg">
  <sodipodi:namedview
     id="namedview59653"
     pagecolor="#ffffff"
     bordercolor="#111111"
     borderopacity="1"
     inkscape:showpageshadow="0"
     inkscape:pageopacity="0"
     inkscape:pagecheckerboard="1"
     inkscape:deskcolor="#d1d1d1"
     showgrid="false"
     inkscape:zoom="0.33523919"
     inkscape:cx="140.19841"
     inkscape:cy="351.98749"
     inkscape:current-layer="svg54768" />
  <defs
     id="defs54772" />
  <path
     d="m 12.395,1.9506742 c 0.7982,-0.7486 2.105,-0.18258 2.105,0.91181 V 21.232534 c 0,1.0942 -1.3063,1.6603 -2.1047,0.9121 l -4.93698,-4.6261 c -0.32432,-0.3039 -0.75213,-0.473 -1.19658,-0.473 H 3.25 c -1.79493,0 -3.25,-1.4551 -3.25,-3.25 v -3.492 C 0,8.5086342 1.45508,7.0535242 3.25,7.0535242 h 3.01119 c 0.44468,0 0.87269,-0.16929 1.19707,-0.47347 z m 0.605,1.48897 -4.5157,4.23458 c -0.6024,0.56491 -1.39727,0.87931 -2.22311,0.87931 H 3.25 c -0.9665,0 -1.75,0.7835 -1.75,1.7499998 v 3.492 c 0,0.9665 0.7835,1.75 1.75,1.75 h 3.01174 c 0.82541,0 1.61991,0.3141 2.22226,0.8784 l 4.516,4.2317 z"
     fill="#010101"
     id="path54764" />
  <path
     d="m 22.217699,15.32664 c 0.291911,0.29389 0.7667,0.295701 1.0607,0.0039 0.294031,-0.291768 0.2957,-0.766699 0.0039,-1.060699 l -2.218097,-2.234403 2.215117,-2.2057835 c 0.29348,-0.2922142 0.29448,-0.7671144 0.0022,-1.0606142 -0.2922,-0.2934997 -0.7671,-0.2944996 -1.0606,-0.0022 L 20.003632,10.974773 17.77843,8.7659759 c -0.294031,-0.2917685 -0.768899,-0.29 -1.060699,0.0039 -0.291769,0.2940313 -0.290001,0.7688995 0.004,1.0606991 l 2.221202,2.204897 -2.224283,2.233617 c -0.2923,0.293499 -0.291299,0.7683 0.0022,1.0606 0.293501,0.2923 0.768401,0.2913 1.0607,-0.0022 l 2.222104,-2.231295 z"
     fill="#010101"
     id="path54766" />
</svg>

<svg xmlns="http://www.w3.org/2000/svg" width="719.976" height="719.976" fill="none" viewBox="0 0 25.199 25.199"><path fill="#010101" d="M12.395 1.95c.798-.748 2.105-.182 2.105.912v18.37c0 1.095-1.306 1.66-2.105.913l-4.937-4.626a1.75 1.75 0 0 0-1.196-.473H3.25A3.25 3.25 0 0 1 0 13.796v-3.492a3.25 3.25 0 0 1 3.25-3.25h3.011c.445 0 .873-.17 1.197-.474zM13 3.44 8.484 7.674a3.25 3.25 0 0 1-2.223.88H3.25a1.75 1.75 0 0 0-1.75 1.75v3.492c0 .966.784 1.75 1.75 1.75h3.012c.825 0 1.62.314 2.222.878L13 20.656zm9.218 11.887a.75.75 0 0 0 1.064-1.057l-2.218-2.235L23.28 9.83a.75.75 0 0 0-1.058-1.063l-2.217 2.208-2.226-2.209a.75.75 0 0 0-1.056 1.065l2.22 2.204-2.223 2.234a.75.75 0 1 0 1.063 1.058l2.222-2.23z"/></svg>
